X:1
T:Chamson's Hornpipe. Roose.1119
T:Chamson's Hornpipe. Roose.1119
T:Champion Hornpipe,aka. Roose.1119
T:James Hill
C:James Hill
L:1/8
Q:1/2=80
M:2/2
K:D
V:1 treble 
V:1
 Ac | d2 cB AGFE | D2 FA dfaf | gAeg fAdf | f/e/d/e/ ge eABc | d2 cB AGFE | D2 FA dfaf | %7
 gAeg fAdf | eAce d2 :: de | fadf A2 Bc | d2 cB AGFE | DFAd fadf | eAgf e2 de | fadf AdFA | %15
 DFAd fadf | gA eg/f/ fA de/f/ | eAce d2 :| %18

